X:1
T: Barbara R.T. McOwen's Hello
C:Ann Hooper
R:Jig
Q:180
K:A
M:6/8
L:1/16
|:E2|A6 c2B2A2|B4E2 e4d2|c2e2a2 e2c2A2|F2G2A2 B4E2|
A6 c2B2A2|B2c2^d2 e4g2|f2g2a2 B2c2^d2|e6 e4:|
c2|d4f2 B2c2d2|e2c2A2 A4c2|d2c2B2 E4G2|A6 A4c2|d4f2 B2c2d2|
e2c2A2 F4d2|c2E2E2 B2E2E2|A6 A2B2c2|d2f2d2 B2c2d2|e2c2A2 A2B2c2|
d2c2B2 E2F2G2|A2G2A2 e4=G2|F4D2 F2G2A2|E2A2c2 e4c2|B2c2d2 E2F2G2|A6 A4||
